src/assets/images/icons/pagedor.svg

<svg xmlns="http://www.w3.org/2000/svg" width="300" height="300" fill="none" viewBox="250 0 100 300"><g clip-path="url(#a)"><path fill="#fad617" d="M290 1c7.021 0 14.041 0 21.737.355 6.931 1.244 13.262 1.774 19.43 3.077 77.119 16.283 127.678 86.283 118.988 164.58-7.042 63.452-55.302 116.365-117.771 129.158-4.147.85-8.257 1.882-12.384 2.83-51.355 0-102.709 0-154.758-.26-10.021-4.008-14.172-11.118-14.17-20.949.006-29.493-.086-58.987.035-88.481.073-17.486-.357-35.03.88-52.446 4.624-65.1 53.21-120.306 117.21-133.938C276.097 3.456 283.064 2.3 290 1m-20.385 106.978c4.096-1.434 6.592-4.148 5.729-8.638-.903-4.693-4.321-6.218-8.874-6.206-24.132.066-48.265.058-72.397.006-4.374-.01-8.051.902-9.127 5.787-1.117 5.07 1.658 7.789 6.443 10.006 1.216.355 2.43 1.016 3.646 1.019 23.219.062 46.438.076 69.657-.026 1.426-.006 2.848-1.054 4.923-1.948m140.811 89.529c.17-.385.339-.77.344-1.623.02-.346.15-.644 1.054-1.16.684-2.451 1.369-4.902 1.931-7.959.151-.592.301-1.183 1.069-2.034.382-2.247.765-4.494 1.067-7.416.091-.441.181-.882.839-1.507.063-.946.127-1.892.082-3.633.112-1.061.224-2.121.965-3.428.044-1.594.088-3.189-.009-5.628.092-1.709.184-3.418.49-5.332.155-.288.1-.545-.287-1.556-.719-5.975-3.089-8.561-7.727-8.433-4.598.128-6.633 3.204-7.23 8.904-.897 8.571-1.424 17.366-3.822 25.564-17.223 58.856-76.741 88.795-134.354 67.958-35.416-12.809-62.965-49.504-64.39-86.516.219-.208.403-.444 1.466-.932 12.997-.022 25.995-.048 38.992-.063 8.665-.011 17.332.094 25.995-.041 6.226-.097 10.004-4.565 8.287-9.568-1.495-4.358-4.969-5.315-9.148-5.305-23.829.054-47.659.007-71.488.036-7.926.01-10.062 2.225-9.794 10.271 1.215 36.489 16.368 66.042 44.657 88.899 17.014 13.747 36.774 21.149 58.644 24.87a79 79 0 0 0 3-.337c7.242.024 14.484.048 22.066.484.615-.245 1.23-.49 2.656-1.011 17.362-2.267 33.441-8.061 48.214-17.483 17.605-11.229 30.892-26.426 41.711-44.785.388-1.08.775-2.16 1.106-3.523 0 0 .187-.22.889-.486.384-1.132.768-2.263 1.109-3.998.405-.914.81-1.828 1.616-3.229m-160.927-62.111c5.662-.002 11.324.055 16.985-.023 5.666-.078 9.281-3.186 9.123-7.676-.152-4.344-3.643-7.261-9.012-7.331-6.16-.08-12.322-.021-18.484-.021-18.152.001-36.304-.039-54.455.025-6.384.022-10.022 3.895-8.77 9.189 1.142 4.832 4.779 5.863 9.158 5.852 18.151-.042 36.303-.016 55.455-.015"/><path fill="#fffefa" d="m418.044 157.993-.319 5.893c-.221 2.213-.399 3.66-.578 5.107l-.408 3.867a62 62 0 0 1-.576 3.132c-.091.441-.181.882-.378 1.987a401 401 0 0 1-1.579 7.011c-.15.592-.3 1.183-.674 2.339-.939 2.93-1.655 5.296-2.371 7.662-.241.249-.371.547-.593 1.31-.316.843-.43 1.268-.544 1.693a264 264 0 0 1-1.467 3.269c-.688 1.597-1.123 2.667-1.558 3.737 0 0-.187.22-.429.568-.677 1.375-1.111 2.402-1.545 3.429-10.137 18.105-23.425 33.302-41.03 44.531-14.773 9.422-30.852 15.216-48.899 17.579-1.228.232-1.77.367-2.311.502-7.242-.023-14.484-.047-22.581-.147-1.42-.08-1.985-.085-2.549-.09-21.466-3.218-41.226-10.62-58.24-24.367-28.289-22.857-43.441-52.41-44.657-88.899-.268-8.046 1.868-10.261 9.794-10.271 23.829-.029 47.659.018 71.488-.036 4.179-.01 7.653.947 9.148 5.305 1.717 5.003-2.061 9.471-8.286 9.568-8.664.135-17.331.03-25.996.041-12.997.015-25.994.041-39.723.187-.852.442-.974.76-1.095 1.079 1.785 36.741 29.334 73.436 64.75 86.245 57.614 20.837 117.131-9.102 134.354-67.958 2.398-8.198 2.925-16.993 3.822-25.564.597-5.7 2.632-8.776 7.23-8.903 4.638-.129 7.008 2.457 7.715 9.066.02.798.052.963.085 1.128"/><path fill="#fffef8" d="M248.999 135.396c-18.651-.001-36.803-.027-54.954.015-4.379.011-8.016-1.02-9.158-5.852-1.252-5.294 2.386-9.167 8.77-9.189 18.151-.064 36.303-.024 54.455-.025 6.161 0 12.324-.059 18.484.021 5.369.07 8.86 2.988 9.012 7.331.157 4.49-3.458 7.598-9.123 7.676-5.661.078-11.324.021-17.486.023"/><path fill="#fffefa" d="M191.033 108.267c-4.429-1.551-7.203-4.27-6.086-9.34 1.076-4.885 4.752-5.797 9.127-5.787 24.132.052 48.265.06 72.397-.006 4.553-.012 7.971 1.513 8.873 6.206.864 4.49-1.633 7.204-6.518 8.76-26.458.137-52.125.152-77.793.167"/><path fill="#fad600" d="M191.211 108.6c25.489-.348 51.157-.363 77.288-.335-.959.607-2.38 1.655-3.807 1.661-23.218.102-46.438.088-69.657.026-1.216-.003-2.43-.664-3.824-1.352"/><path fill="#fad70e" d="M414.516 184.861c.182-1.986.673-4.102 1.31-6.544-.237 1.92-.619 4.167-1.31 6.544m-3.023 9.997c.385-2.233 1.101-4.599 2.101-7.226-.401 2.19-1.085 4.641-2.101 7.226m5.97-25.988c-.137-1.324.041-2.771.333-4.562.07 1.25.026 2.845-.333 4.562m-1.016 7.03c-.116-.723.052-1.539.347-2.643.063.659 0 1.605-.347 2.643m-9.096 28.967c.084-.937.519-2.007 1.228-3.303-.109.907-.493 2.038-1.228 3.303m-1.985 4.003c.094-.9.528-1.927 1.233-3.161-.117.874-.505 1.954-1.233 3.161"/><path fill="#fad501" d="M312.955 271.816c.371-.342.913-.477 1.735-.571-.335.287-.95.532-1.735.571m-25.098-.192c.363-.247.927-.242 1.891-.092-.296.211-.992.277-1.891.092"/><path fill="#fad70e" d="M418.151 157.89c-.139-.062-.171-.227-.131-.633.339-.015.394.242.131.633"/><path fill="#fad400" d="M200.269 163.844c-.059-.184.063-.502.458-.832.125.252-.059.488-.458.832"/><path fill="#fad70e" d="M410.226 197.75c-.087-.181.026-.606.425-1.215.115.202-.055.587-.425 1.215"/></g><defs><clipPath id="a"><path fill="#fff" d="M0 0h600v300H0z"/></clipPath></defs></svg>

<svg width="300" height="300" viewBox="250 0 100 300" fill="none" xmlns="http://www.w3.org/2000/svg">
<g clip-path="url(#clip0_312_60)">
<path d="M290 1C297.021 1 304.041 1 311.737 1.35468C318.668 2.59863 324.999 3.1292 331.167 4.43162C408.286 20.715 458.845 90.7145 450.155 169.012C443.113 232.464 394.853 285.377 332.384 298.17C328.237 299.02 324.127 300.052 320 301C268.645 301 217.291 301 165.242 300.74C155.221 296.732 151.07 289.622 151.072 279.791C151.078 250.298 150.986 220.804 151.107 191.31C151.18 173.824 150.75 156.28 151.987 138.864C156.611 73.764 205.197 18.558 269.197 4.92586C276.097 3.45619 283.064 2.30104 290 1ZM269.615 107.978C273.711 106.544 276.207 103.83 275.344 99.3398C274.441 94.6469 271.023 93.122 266.47 93.1343C242.338 93.1998 218.205 93.1921 194.073 93.1398C189.699 93.1303 186.022 94.0424 184.946 98.927C183.829 103.997 186.604 106.716 191.389 108.933C192.605 109.288 193.819 109.949 195.035 109.952C218.254 110.014 241.473 110.028 264.692 109.926C266.118 109.92 267.54 108.872 269.615 107.978ZM410.426 197.507C410.596 197.122 410.765 196.737 410.77 195.884C410.79 195.538 410.92 195.24 411.824 194.724C412.508 192.273 413.193 189.822 413.755 186.765C413.906 186.173 414.056 185.582 414.824 184.731C415.206 182.484 415.589 180.237 415.891 177.315C415.982 176.874 416.072 176.433 416.73 175.808C416.793 174.862 416.857 173.916 416.812 172.175C416.924 171.114 417.036 170.054 417.777 168.747C417.821 167.153 417.865 165.558 417.768 163.119C417.86 161.41 417.952 159.701 418.258 157.787C418.413 157.499 418.358 157.242 417.971 156.231C417.252 150.256 414.882 147.67 410.244 147.798C405.646 147.926 403.611 151.002 403.014 156.702C402.117 165.273 401.59 174.068 399.192 182.266C381.969 241.122 322.451 271.061 264.838 250.224C229.422 237.415 201.873 200.72 200.448 163.708C200.667 163.5 200.851 163.264 201.914 162.776C214.911 162.754 227.909 162.728 240.906 162.713C249.571 162.702 258.238 162.807 266.901 162.672C273.127 162.575 276.905 158.107 275.188 153.104C273.693 148.746 270.219 147.789 266.04 147.799C242.211 147.853 218.381 147.806 194.552 147.835C186.626 147.845 184.49 150.06 184.758 158.106C185.973 194.595 201.126 224.148 229.415 247.005C246.429 260.752 266.189 268.154 288.059 271.875C288.755 271.809 289.451 271.743 291.059 271.538C298.301 271.562 305.543 271.586 313.125 272.022C313.74 271.777 314.355 271.532 315.781 271.011C333.143 268.744 349.222 262.95 363.995 253.528C381.6 242.299 394.887 227.102 405.706 208.743C406.094 207.663 406.481 206.583 406.812 205.22C406.812 205.22 406.999 205 407.701 204.734C408.085 203.602 408.469 202.471 408.81 200.736C409.215 199.822 409.62 198.908 410.426 197.507ZM249.499 135.396C255.161 135.394 260.823 135.451 266.484 135.373C272.15 135.295 275.765 132.187 275.607 127.697C275.455 123.353 271.964 120.436 266.595 120.366C260.435 120.286 254.273 120.345 248.111 120.345C229.959 120.346 211.807 120.306 193.656 120.37C187.272 120.392 183.634 124.265 184.886 129.559C186.028 134.391 189.665 135.422 194.044 135.411C212.195 135.369 230.347 135.395 249.499 135.396Z" fill="#FAD617"/>
<path d="M418.044 157.993C417.952 159.701 417.86 161.41 417.725 163.886C417.504 166.099 417.326 167.546 417.147 168.993C417.036 170.054 416.924 171.114 416.739 172.86C416.499 174.361 416.331 175.177 416.163 175.992C416.072 176.433 415.982 176.874 415.785 177.979C415.188 180.759 414.697 182.875 414.206 184.99C414.056 185.582 413.906 186.173 413.532 187.329C412.593 190.259 411.877 192.625 411.161 194.991C410.92 195.24 410.79 195.538 410.568 196.301C410.252 197.144 410.138 197.569 410.024 197.994C409.62 198.908 409.215 199.822 408.557 201.263C407.869 202.86 407.434 203.93 406.999 205C406.999 205 406.812 205.22 406.57 205.568C405.893 206.943 405.459 207.97 405.025 208.997C394.888 227.102 381.6 242.299 363.995 253.528C349.222 262.95 333.143 268.744 315.096 271.107C313.868 271.339 313.326 271.474 312.785 271.609C305.543 271.586 298.301 271.562 290.204 271.462C288.784 271.382 288.219 271.377 287.655 271.372C266.189 268.154 246.429 260.752 229.415 247.005C201.126 224.148 185.974 194.595 184.758 158.106C184.49 150.06 186.626 147.845 194.552 147.835C218.381 147.806 242.211 147.853 266.04 147.799C270.219 147.789 273.693 148.746 275.188 153.104C276.905 158.107 273.127 162.575 266.902 162.672C258.238 162.807 249.571 162.702 240.906 162.713C227.909 162.728 214.912 162.754 201.183 162.9C200.331 163.342 200.209 163.66 200.088 163.979C201.873 200.72 229.422 237.415 264.838 250.224C322.452 271.061 381.969 241.122 399.192 182.266C401.59 174.068 402.117 165.273 403.014 156.702C403.611 151.002 405.646 147.926 410.244 147.799C414.882 147.67 417.252 150.256 417.959 156.865C417.979 157.663 418.011 157.828 418.044 157.993Z" fill="#FFFEFA"/>
<path d="M248.999 135.396C230.348 135.395 212.196 135.369 194.045 135.411C189.666 135.422 186.029 134.391 184.887 129.559C183.635 124.265 187.273 120.392 193.657 120.37C211.808 120.306 229.96 120.346 248.112 120.345C254.273 120.345 260.436 120.286 266.596 120.366C271.965 120.436 275.456 123.354 275.608 127.697C275.765 132.187 272.15 135.295 266.485 135.373C260.824 135.451 255.161 135.394 248.999 135.396Z" fill="#FFFEF8"/>
<path d="M191.033 108.267C186.604 106.716 183.83 103.997 184.947 98.927C186.023 94.0424 189.699 93.1303 194.074 93.1398C218.206 93.1921 242.339 93.1998 266.471 93.1344C271.024 93.122 274.442 94.647 275.344 99.3398C276.208 103.83 273.711 106.544 268.826 108.1C242.368 108.237 216.701 108.252 191.033 108.267Z" fill="#FFFEFA"/>
<path d="M191.211 108.6C216.7 108.252 242.368 108.237 268.499 108.265C267.54 108.872 266.119 109.92 264.692 109.926C241.474 110.028 218.254 110.014 195.035 109.952C193.819 109.949 192.605 109.288 191.211 108.6Z" fill="#FAD600"/>
<path d="M414.516 184.861C414.698 182.875 415.189 180.759 415.826 178.317C415.589 180.237 415.207 182.484 414.516 184.861Z" fill="#FAD70E"/>
<path d="M411.493 194.858C411.878 192.625 412.594 190.259 413.594 187.632C413.193 189.822 412.509 192.273 411.493 194.858Z" fill="#FAD70E"/>
<path d="M417.463 168.87C417.326 167.546 417.504 166.099 417.796 164.308C417.866 165.558 417.822 167.153 417.463 168.87Z" fill="#FAD70E"/>
<path d="M416.447 175.9C416.331 175.177 416.499 174.361 416.794 173.257C416.857 173.916 416.794 174.862 416.447 175.9Z" fill="#FAD70E"/>
<path d="M407.351 204.867C407.435 203.93 407.87 202.86 408.579 201.564C408.47 202.471 408.086 203.602 407.351 204.867Z" fill="#FAD70E"/>
<path d="M405.366 208.87C405.46 207.97 405.894 206.943 406.599 205.709C406.482 206.583 406.094 207.663 405.366 208.87Z" fill="#FAD70E"/>
<path d="M312.955 271.816C313.326 271.474 313.868 271.339 314.69 271.245C314.355 271.532 313.74 271.777 312.955 271.816Z" fill="#FAD501"/>
<path d="M287.857 271.624C288.22 271.377 288.784 271.382 289.748 271.532C289.452 271.743 288.756 271.809 287.857 271.624Z" fill="#FAD501"/>
<path d="M418.151 157.89C418.012 157.828 417.98 157.663 418.02 157.257C418.359 157.242 418.414 157.499 418.151 157.89Z" fill="#FAD70E"/>
<path d="M200.269 163.844C200.21 163.66 200.332 163.342 200.727 163.012C200.852 163.264 200.668 163.5 200.269 163.844Z" fill="#FAD400"/>
<path d="M410.226 197.75C410.139 197.569 410.252 197.144 410.651 196.535C410.766 196.737 410.596 197.122 410.226 197.75Z" fill="#FAD70E"/>
</g>
<defs>
<clipPath id="clip0_312_60">
<rect width="600" height="300" fill="white"/>
</clipPath>
</defs>
</svg>
